elements/rpg-character/lib/hat/coffee.svg

<svg xmlns="http://www.w3.org/2000/svg" fill="none" width="113" height="142" viewBox="0 0 113 142"><path d="M11 110h13v14H11v-14Zm13 2h2v2h-2v-2Zm2 2h2v6h-2v-6Zm-2 6h2v2h-2v-2Z" fill="#E9E4D8"/><path d="M22 105h1v1h-1v-1Zm1-2h1v2h-1v-2Zm-1-1h1v1h-1v-1Zm1-1h1v1h-1v-1Z" fill="#C4C4C4"/><path d="M22 103h1v2h-1v-2Zm2 0h1v2h-1v-2Zm-3 2h1v1h-1v-1Zm2 0h1v1h-1v-1Zm-1 1h1v1h-1v-1Zm-1-4h1v1h-1v-1Zm2 0h1v1h-1v-1Zm-1-1h1v1h-1v-1Zm2 0h1v1h-1v-1Zm-1-1h1v1h-1v-1Z" fill="#595959"/><path d="M17 103h1v1h-1v-1Zm1-2h1v2h-1v-2Zm-1-1h1v1h-1v-1Zm1-1h1v1h-1v-1Z" fill="#C4C4C4"/><path d="M17 101h1v2h-1v-2Zm2 0h1v2h-1v-2Zm-3 2h1v1h-1v-1Zm2 0h1v1h-1v-1Zm-1 1h1v1h-1v-1Zm-1-4h1v1h-1v-1Zm2 0h1v1h-1v-1Zm-1-1h1v1h-1v-1Zm2 0h1v1h-1v-1Zm-1-1h1v1h-1v-1Z" fill="#595959"/><path d="M12 105h1v1h-1v-1Zm1-2h1v2h-1v-2Zm-1-1h1v1h-1v-1Zm1-1h1v1h-1v-1Z" fill="#C4C4C4"/><path d="M12 103h1v2h-1v-2Zm2 0h1v2h-1v-2Zm-3 2h1v1h-1v-1Zm2 0h1v1h-1v-1Zm-1 1h1v1h-1v-1Zm-1-4h1v1h-1v-1Zm2 0h1v1h-1v-1Zm-1-1h1v1h-1v-1Zm2 0h1v1h-1v-1Zm-1-1h1v1h-1v-1Z" fill="#595959"/><path d="M11 117h2v2h-2v-2Zm2-2h2v2h-2v-2Zm2 2h2v2h-2v-2Zm2-2h2v2h-2v-2Zm2 2h2v2h-2v-2Zm2-2h2v2h-2v-2Zm2 2h1v2h-1v-2Z" fill="#A78D4A"/><path d="M11 110H9v13.92l2 .08v2h13v-2h2v-2h2v-2h2v-6h-2v-2h-2v-2h-2v-2H11v2Zm0 0h13v2h2v2h2v6h-2v2h-2v2H11v-14Z" fill="#352403" fill-rule="evenodd" clip-rule="evenodd"/><path d="M25 114v6" stroke="#000" stroke-width="2"/><path d="M56 77h1v4h-1v-4Zm-2 0h1v2h-1v-2Z" fill="#65410B"/></svg>

<svg width="113" height="142" viewBox="0 0 113 142" fill="none" xmlns="http://www.w3.org/2000/svg">
<path d="M11 110H24V124H11V110Z" fill="#E9E4D8"/>
<path d="M24 112H26V114H24V112Z" fill="#E9E4D8"/>
<path d="M26 114H28V120H26V114Z" fill="#E9E4D8"/>
<path d="M24 120H26V122H24V120Z" fill="#E9E4D8"/>
<path d="M22 105H23V106H22V105Z" fill="#C4C4C4"/>
<path d="M23 103H24V105H23V103Z" fill="#C4C4C4"/>
<path d="M22 102H23V103H22V102Z" fill="#C4C4C4"/>
<path d="M23 101H24V102H23V101Z" fill="#C4C4C4"/>
<path d="M22 103H23V105H22V103Z" fill="#595959"/>
<path d="M24 103H25V105H24V103Z" fill="#595959"/>
<path d="M21 105H22V106H21V105Z" fill="#595959"/>
<path d="M23 105H24V106H23V105Z" fill="#595959"/>
<path d="M22 106H23V107H22V106Z" fill="#595959"/>
<path d="M21 102H22V103H21V102Z" fill="#595959"/>
<path d="M23 102H24V103H23V102Z" fill="#595959"/>
<path d="M22 101H23V102H22V101Z" fill="#595959"/>
<path d="M24 101H25V102H24V101Z" fill="#595959"/>
<path d="M23 100H24V101H23V100Z" fill="#595959"/>
<path d="M17 103H18V104H17V103Z" fill="#C4C4C4"/>
<path d="M18 101H19V103H18V101Z" fill="#C4C4C4"/>
<path d="M17 100H18V101H17V100Z" fill="#C4C4C4"/>
<path d="M18 99H19V100H18V99Z" fill="#C4C4C4"/>
<path d="M17 101H18V103H17V101Z" fill="#595959"/>
<path d="M19 101H20V103H19V101Z" fill="#595959"/>
<path d="M16 103H17V104H16V103Z" fill="#595959"/>
<path d="M18 103H19V104H18V103Z" fill="#595959"/>
<path d="M17 104H18V105H17V104Z" fill="#595959"/>
<path d="M16 100H17V101H16V100Z" fill="#595959"/>
<path d="M18 100H19V101H18V100Z" fill="#595959"/>
<path d="M17 99H18V100H17V99Z" fill="#595959"/>
<path d="M19 99H20V100H19V99Z" fill="#595959"/>
<path d="M18 98H19V99H18V98Z" fill="#595959"/>
<path d="M12 105H13V106H12V105Z" fill="#C4C4C4"/>
<path d="M13 103H14V105H13V103Z" fill="#C4C4C4"/>
<path d="M12 102H13V103H12V102Z" fill="#C4C4C4"/>
<path d="M13 101H14V102H13V101Z" fill="#C4C4C4"/>
<path d="M12 103H13V105H12V103Z" fill="#595959"/>
<path d="M14 103H15V105H14V103Z" fill="#595959"/>
<path d="M11 105H12V106H11V105Z" fill="#595959"/>
<path d="M13 105H14V106H13V105Z" fill="#595959"/>
<path d="M12 106H13V107H12V106Z" fill="#595959"/>
<path d="M11 102H12V103H11V102Z" fill="#595959"/>
<path d="M13 102H14V103H13V102Z" fill="#595959"/>
<path d="M12 101H13V102H12V101Z" fill="#595959"/>
<path d="M14 101H15V102H14V101Z" fill="#595959"/>
<path d="M13 100H14V101H13V100Z" fill="#595959"/>
<path d="M11 117H13V119H11V117Z" fill="#A78D4A"/>
<path d="M13 115H15V117H13V115Z" fill="#A78D4A"/>
<path d="M15 117H17V119H15V117Z" fill="#A78D4A"/>
<path d="M17 115H19V117H17V115Z" fill="#A78D4A"/>
<path d="M19 117H21V119H19V117Z" fill="#A78D4A"/>
<path d="M21 115H23V117H21V115Z" fill="#A78D4A"/>
<path d="M23 117H24V119H23V117Z" fill="#A78D4A"/>
<path fill-rule="evenodd" clip-rule="evenodd" d="M11 110H9V123.92L11 124V126H24V124H26V122H28V120H30V114H28V112H26V110H24V108H11V110ZM11 110H24V112H26V114H28V120H26V122H24V124H11V110Z" fill="#352403"/>
<path d="M25 114V120" stroke="black" stroke-width="2"/>
<path d="M56 77H57V81H56V77Z" fill="#65410B"/>
<path d="M54 77H55V79H54V77Z" fill="#65410B"/>
</svg>
